X: 28
T: Pollonesse #28
M: 3/4
L: 1/16
K: C
Q:120
c2cG E2EC G,4|E2EG c2ce g4|a2fa g2eg f2de|fedc BcdB G4|
c2cG E2EC G,4|E2EG c2ce g4|a2fa g2eg f2de|edcB d4c4:|
gece gece g2g2|dBGB dBGB d2d2|cAFA cAFA c2c2| GECE GECE G2G2|
a2fa g2eg f2de|edcB d4c4:|

